X:1
T:Title
L:1/8
M:12/4
K:Bb
V:1 treble nm="Viola"
V:1
 A4 B2 c2 d4 c4 B2 B2 A4 |[M:8/4] c2 f4 e2 d2 d2 c4 |[M:10/4] A4 c2 B2 A2 d2 c2 B2 A4 | %3
[M:8/4] F4 G2 A2 B2 c2 F4 |[M:10/4] G2 d4 B2 f2 d2 c2 c2 B4 |[M:8/4] B4 G2 A2 B2 c2 d4 | %6
[M:10/4] B4 F2 G2 A2 B2 G2 d2 B4 | G2 c4 B2 A2 A2 G8 |] %8

